icons/Document/file-history-fill.svg

<svg viewBox="0 0 24 24" xmlns="http://www.w3.org/2000/svg"><path d="M16 2L21 6.999V21.0082C21 21.556 20.5551 22 20.0066 22H3.9934C3.44476 22 3 21.5447 3 21.0082V2.9918C3 2.44405 3.44495 2 3.9934 2H16ZM13 9H11V15H16V13H13V9Z"/></svg>

<svg xmlns="http://www.w3.org/2000/svg" viewBox="0 0 24 24">
    <g>
        <path fill="none" d="M0 0L24 0 24 24 0 24z"/>
        <path d="M16 2l5 4.999v14.01c0 .547-.445.991-.993.991H3.993C3.445 22 3 21.545 3 21.008V2.992C3 2.444 3.445 2 3.993 2H16zm-3 7h-2v6h5v-2h-3V9z"/>
    </g>
</svg>
